src/Pure/16/symbolic/actions/xapp-unpin-symbolic.svg

<?xml version="1.0" encoding="UTF-8" standalone="no"?>
<svg
   width="16"
   height="16"
   version="1.1"
   id="svg2"
   sodipodi:docname="xapp-unpin-symbolic.svg"
   inkscape:version="1.4.2 (ebf0e940d0, 2025-05-08)"
   xmlns:inkscape="http://www.inkscape.org/namespaces/inkscape"
   xmlns:sodipodi="http://sodipodi.sourceforge.net/DTD/sodipodi-0.dtd"
   xmlns="http://www.w3.org/2000/svg"
   xmlns:svg="http://www.w3.org/2000/svg">
  <defs
     id="defs2">
    <style
       id="current-color-scheme"
       type="text/css">
          .ColorScheme-Text { color:#363636; }
      </style>
  </defs>
  <sodipodi:namedview
     id="namedview2"
     pagecolor="#ffffff"
     bordercolor="#000000"
     borderopacity="0.25"
     inkscape:showpageshadow="2"
     inkscape:pageopacity="0.0"
     inkscape:pagecheckerboard="0"
     inkscape:deskcolor="#d1d1d1"
     inkscape:zoom="49.6875"
     inkscape:cx="8"
     inkscape:cy="8"
     inkscape:window-width="1920"
     inkscape:window-height="1010"
     inkscape:window-x="0"
     inkscape:window-y="0"
     inkscape:window-maximized="1"
     inkscape:current-layer="svg2" />
  <path
     id="path1"
     style="fill:currentColor"
     class="ColorScheme-Text"
     d="M 3 1 L 4 2 L 4 6 L 2 8 L 9 8 L 7 6 L 7 2 L 8 1 L 3 1 z M 5 9 L 5 13.75 A 16.197 16.197 0 0 0 5.5 15.25 A 18.757 18.757 0 0 0 6 13.75 L 6 9 L 5 9 z " />
  <path
     id="path2"
     style="fill:currentColor"
     class="ColorScheme-Text"
     d="M 11.5 8 C 9.5670034 8 8 9.5670034 8 11.5 C 8 13.432997 9.5670034 15 11.5 15 C 13.432997 15 15 13.432997 15 11.5 C 15 9.5670034 13.432997 8 11.5 8 z M 9 11 L 14 11 L 14 12 L 9 12 L 9 11 z " />
</svg>

<svg width="16" height="16" version="1.1" xmlns="http://www.w3.org/2000/svg">
 <path d="m3 1 1 1v4l-2 2h7l-2-2v-4l1-1zm2 8v4.75a16.197 16.197 0 0 0 0.5 1.5 18.757 18.757 0 0 0 0.5-1.5v-4.75z" color="#000000" fill="#363636"/>
 <path d="m11.5 8a3.5 3.5 0 0 0-3.5 3.5 3.5 3.5 0 0 0 3.5 3.5 3.5 3.5 0 0 0 3.5-3.5 3.5 3.5 0 0 0-3.5-3.5zm-2.5 3h5v1h-5z" fill="#363636" stroke-linecap="round" stroke-linejoin="round" stroke-opacity=".25" stroke-width="1.4022" style="paint-order:markers stroke fill"/>
</svg>
